libs/ui/packages/crypto-icons/src/svg/DEEZ.svg

<svg width="24" height="24" viewBox="0 0 24 24" fill="none">
<path fill-rule="evenodd" clip-rule="evenodd" d="M10.2802 14.895C10.554 14.7173 12.3938 13.59 14.1863 12.492C15.4785 11.7015 15.4785 11.7015 15.456 11.6243C15.4335 11.5305 7.431 6.6675 7.34925 6.61875C7.19724 6.52898 7.04672 6.43672 6.89775 6.342C7.04475 6.24 7.3305 6.045 7.6725 5.8125L8.505 5.25L9.0765 5.592C9.7815 6.0135 17.5215 10.761 18.606 11.4368C18.1635 11.703 16.596 12.6308 14.4885 13.872L10.3012 16.3395C10.2936 16.1211 10.2886 15.9026 10.2863 15.684C10.2815 15.4213 10.2798 15.1585 10.281 14.8958L10.2802 14.895ZM8.50425 10.173C8.643 10.2555 8.883 10.4003 9.1785 10.584L9.95025 11.0625L9.96675 12.51C10.0155 16.6928 10.0155 16.6928 10.0763 16.7355L10.1168 16.7633L10.1617 16.7468C10.1842 16.74 10.1925 16.737 18.315 11.9453L18.75 11.6888L18.6068 13.701L18.5543 13.731C15.2099 15.6521 11.8626 17.5681 8.5125 19.479C8.5095 18.9548 8.505 17.1653 8.50425 14.832V10.173ZM6.75 18.6L6.76875 6.62475L7.05975 6.7965C7.29375 6.933 8.87175 7.89525 10.6545 8.98575C11.9311 9.76841 13.2096 10.5479 14.49 11.3243L15.0262 11.6468L13.2532 12.7313L12.8992 12.525C12.1892 12.0962 11.4817 11.6632 10.7768 11.226C10.0894 10.7997 9.39936 10.3777 8.70675 9.96L8.21775 9.675L8.214 14.7518C8.2125 17.0423 8.21025 18.9458 8.20875 19.5008C8.064 19.413 7.81725 19.2608 7.52775 19.0808L6.75 18.6Z" fill="#939393"/>
</svg>

<svg width="24" height="24" viewBox="0 0 24 24" fill="none"><path fill="#939393" fill-rule="evenodd" d="M10.28 14.895a539 539 0 0 1 3.906-2.403c1.293-.79 1.293-.79 1.27-.868-.022-.094-8.025-4.956-8.107-5.005q-.228-.135-.451-.277c.147-.102.433-.297.775-.53l.832-.562.571.342c.705.422 8.446 5.169 9.53 5.845a845 845 0 0 1-4.118 2.435l-4.187 2.468a27 27 0 0 1-.015-.656 35 35 0 0 1-.005-.788zm-1.776-4.722c.139.082.379.227.675.411l.771.479.017 1.447c.048 4.183.048 4.183.11 4.225l.04.028.045-.016c.022-.007.03-.01 8.153-4.802l.435-.256-.143 2.012-.053.03a3819 3819 0 0 1-10.041 5.748c-.004-.524-.008-2.314-.009-4.647zM6.75 18.6l.019-11.975.29.172c.235.136 1.813 1.098 3.596 2.189q1.915 1.173 3.835 2.338l.536.323-1.773 1.084-.354-.206q-1.065-.643-2.122-1.299-1.032-.639-2.07-1.266l-.49-.285-.003 5.077-.005 4.749-.681-.42z" clip-rule="evenodd"/></svg>
